X:1
T:Title
%%score { ( 1 3 ) | 2 }
L:1/8
Q:1/4=100
M:4/4
K:G
V:1 treble nm="Grand Piano"
V:3 treble 
V:2 bass 
V:1
 [DB]3 [DB] [Ec][DB][B,G][B,D] | [DF]4 [CE]4 | [B,D]3 [B,G] [DB][B,G][^CB][CA] | [DA]6 z2 | %4
w: J.~Lincoln~Hall * * * * *||||
 [Ec][Ec][Ec][Ec] [^DB]2 [DB][DF] | [FA]4 [EG]4 | [DA][DA][DA][DA] [^CB]2 [CA]2 |[M:3/4] D6 | %8
w: ||||
[M:1/4] dd |[M:4/4] e4 z4 | e4 z4 | GGGG [^CB]2 [CA]2 | A6 dd | e4 z4 | d4 z4 | DBBB B2 A2 | %16
w: ||||||||
[M:3/4] [B,G]6 |] %17
w: |
V:2
 [G,,G,]3 [G,,G,] [G,,G,][G,,G,][G,,G,][G,,G,] | [C,G,]4 [C,G,]4 | %2
 [G,,G,]3 [G,,G,] [G,,G,][G,,G,][A,,G,][A,,G,] | [D,F,]6 z2 | %4
 [A,,A,][A,,A,][A,,A,][A,,A,] [B,,F,]2 [B,,F,][B,,B,] | [E,B,]4 [E,B,]4 | %6
 [A,,F,][A,,F,][A,,F,][A,,F,] [A,,G,]2 [A,,G,]2 |[M:3/4] [D,F,]6 |[M:1/4] z2 | %9
[M:4/4] [D,C][D,C][D,C][D,C] [D,C]2 z2 | [G,B,G][G,B,][G,B,][G,B,] [G,B,G]2 [G,DG][K:bass][G,CD] | %11
 [G,B,D][G,B,D][G,B,D][G,B,D] [A,,G,]2 [A,,G,]2 | [D,F,D]6 z2 | %13
 [G,B,G][G,B,][G,B,][G,B,] [G,DG]2 [G,B,=F][G,B,F] | %14
 [C,G,][C,G,][C,G,][C,G,] [C,G,]2 [C,G,C][C,G,C] | %15
 [D,G,B,][D,G,D][D,G,D][D,G,D] [D,F,D]2 [D,F,C]2 |[M:3/4] [G,,G,]6 |] %17
V:3
 x8 | x8 | x8 | x8 | x8 | x8 | x8 |[M:3/4] x6 |[M:1/4] x2 |[M:4/4] FFFF [FA]2 dd | z GGG d2 BA | %11
 x8 | x8 | z GGG B2 dd | EEEE [Ec]2 EE | x8 |[M:3/4] x6 |] %17

